demos/KANBAN/public/icons/Report.svg

<svg width="24" height="24" viewBox="0 0 24 24" fill="none" xmlns="http://www.w3.org/2000/svg">
<path d="M16.4445 20.8889V12.8039C16.4445 12.5008 16.7022 12.2551 17.0001 12.2551C17.3068 12.2551 17.5556 12.4946 17.5556 12.8039V20.8889H18.675C19.889 20.8889 20.889 19.8918 20.889 18.6749V5.32498C20.889 4.11098 19.8919 3.11099 18.675 3.11099H5.32512C4.11113 3.11099 3.11113 4.10806 3.11113 5.32498V18.6749C3.11113 19.8889 4.1082 20.8889 5.32512 20.8889H6.44454V15.5903C6.44454 15.2776 6.70221 15.0239 7.00007 15.0239C7.30685 15.0239 7.5556 15.2703 7.5556 15.5903V20.8889H9.77784V10.0379C9.77784 9.73333 10.0355 9.48652 10.3334 9.48652C10.6403 9.48652 10.889 9.72424 10.889 10.0379V20.8889H13.1111V5.88611C13.1111 5.58087 13.3689 5.33337 13.6668 5.33337C13.9736 5.33337 14.2223 5.58114 14.2223 5.88611V20.8889H16.4445ZM2 5.32505C2 3.4887 3.5032 2 5.32505 2H18.675C20.5113 2 22 3.5032 22 5.32505V18.675C22 20.5113 20.4968 22 18.675 22H5.32505C3.4887 22 2 20.4968 2 18.675V5.32505Z" fill="#5D6679"/>
</svg>

<svg xmlns="http://www.w3.org/2000/svg" width="24" height="24" fill="none"><path fill="#5D6679" d="M16.445 20.889v-8.085c0-.303.257-.549.555-.549.307 0 .556.24.556.549v8.085h1.119a2.223 2.223 0 0 0 2.214-2.214V5.325a2.223 2.223 0 0 0-2.214-2.214H5.325a2.223 2.223 0 0 0-2.214 2.214v13.35c0 1.214.997 2.214 2.214 2.214h1.12V15.59c0-.312.257-.566.555-.566.307 0 .556.246.556.566v5.299h2.222V10.038a.56.56 0 0 1 .555-.551c.307 0 .556.237.556.55V20.89h2.222V5.886a.56.56 0 0 1 .556-.553c.307 0 .555.248.555.553V20.89h2.223ZM2 5.325A3.334 3.334 0 0 1 5.325 2h13.35A3.334 3.334 0 0 1 22 5.325v13.35A3.334 3.334 0 0 1 18.675 22H5.325A3.334 3.334 0 0 1 2 18.675V5.325Z"/></svg>
